X:1
T:Title
%%score { ( 1 3 5 ) | ( 2 4 ) }
L:1/8
Q:1/4=106
M:3/4
K:Eb
V:1 treble nm="Grand Piano"
V:3 treble 
V:5 treble 
V:2 bass 
V:4 bass 
V:1
 E2 F2 G2 | A4 z2 | c4 z2 | e4 z2 | c2 d2 e2 | B2 AG [B,DA]2 | [B,EG]6 | [DF]4 [DFB]2 | %8
w: Arthur~Somervell * *||||||||
 [Cc]2- [CFc]2 d2 | B4 z2 | A2 GF G2 | F4 z2 | B2 E2 F2 | G2 AG [A,DF]2 | [G,E]6 |] %15
w: |||||||
V:2
 [E,G,]2 [E,A,E]2 [E,B,E]2 | [CE]2 D2 [E,E]2 | A2 z2 [A,DF]2 | [G,B,E]2 [=A,C]2 [B,D]2 | %4
 [B,EG]2 [A,B,F]2[K:bass] [G,B,E]2 | [F,CE]4 F,2 | E,4 G,2 | B,4 B,2 | B,2 A,2[K:treble] [A,B,F]2 | %9
 F2 z2[K:bass] z2 | [CE]2 z2 z2 | [B,,B,]4 [A,B,D]2 | E2 z2 z2 | [B,E]4 B,,2 | E,6 |] %15
V:3
 x6 | z2 F2 G2 | z2 G2 B2 | z2 z2 d2 | x6 | x6 | x6 | x6 | G2 z2 z2 | z2 E2 E2 | x6 | E2 D2 F2 | %12
 x6 | x6 | x6 |] %15
V:4
 x6 | E,4 z2 | [A,E]4 z2 | x6 | x4[K:bass] x2 | x6 | x6 | x6 | x4[K:treble] x2 | %9
 [G,B,]4[K:bass] [G,B,]2 | F,2- [F,B,D]2 [E,B,E]2 | x6 | [G,B,]4 [A,CE]2 | x6 | x6 |] %15
V:5
 x6 | x6 | x6 | z2 F4 | x6 | x6 | x6 | x6 | x6 | x6 | x6 | x6 | x6 | x6 | x6 |] %15

